X:1
T:Recessit pastor noster - Victoria
T:#
%%score [ 1 2 3 4 ]
L:1/8
Q:1/4=200
M:none
K:F
V:1 treble nm="Soprano" snm="S"
V:2 treble nm="Alto" snm="A"
V:3 treble-8 nm="Tenor" snm="T"
V:4 bass nm="Bass" snm="B"
V:1
"^Recessit pastor noster""^Tomas Luis deVictoria\n(1548-1611)" z16 | z16 | z16 | z8 z4 d4- | %4
w: |||Fons|
 d4 B4 c4 (d4- | d4 c2 B2 A8) | G4 B4 c4 d4 |[M:4/2] _e6 d2 d8 | z16 | z16 | c8 A4 =B4 | %11
w: * a- quae vi\-||vae, ad cu- ius|tran- si- tum|||sol ob- scu-|
 (c6 B2 A4 G4 | ^F4 G8) F4 | G16 ||S G8 G4 G4- | G4 G4 A4 A4 | B8 z8 | z16 | z16 | z16 | %20
w: ra\- * * *|* * tus|est:|Nam et il\-|* le ca- ptus|est,||||
 z8 z4 d4- | d4 d4 d8 | d12 c4 | B8 A4 A4 | =B6 B2 B4 c4 | A8 z8 | z16 | z16 | z4 B4 A4 F4 | %29
w: ho\-|* di- e|por- tas|mor- tis et|se- ras pa- ri-|ter|||Sal- va- tor|
 A8 G4 A4 | (B2 c2 d2 e2 f8- | f4 _e4 d8) | d16!fine! ||"^Trio" z16 | G8 d4 e4 | (f6 e2 d4 c4) | %36
w: no- ster dis-|ru\- * * * *||pit.||De- stru- xit|qui\- * * *|
 d4 A4 A4 B4 | (c12 B4 | A8) G8 | z4 d8 c4 | (B4 A4) G4 g4- | g4 f4 _e8 | d4 B4 d6 d2 | %43
w: dem clau- stra in-|fer\- *|* ni,|et sub-|ver\- * tit, et|* sub- ver-|tit po- ten- ti-|
 d4 c4 B4 A4 | G8 z8 | z4 d4 _e6 e2 | _e4 d4 (c4 B2 A2 | B2 c2 d2 B2 c4 d4- | d2 c2 B4 A4) A4 | %49
w: as di- a- bo-|li,|po- ten- ti-|as di- a\- * *||* * * * bo-|
"^al fine" =B16 |] %50
w: li.|
V:2
 z16 | z16 | z16 | z16 | G8 E4 ^F4 | (G12 ^F4) | G4 G4 A4 =B4 |[M:4/2] c6 B2 B4 G4- | %8
w: ||||fons a- quae|vi\- *|vae, ad cu- ius|tran- si- tum sol|
 G4 E4 ^F4 (G4- | G2 F2 E2 D2 C4) D4 | E4 C4 D4 D4 | (C6 D2 _E8 | D12) D4 | D16 || D8 D4 E4- | %15
w: * ob- scu- ra\-|* * * * * tus|est, sol ob- scu-|ra\- * *|* tus|est:|Nam et il\-|
 E4 D4 E4 ^F4 | G4 D8 E4- | E4 F8 G4 | G4 A8 F4 | G8 C4 G4- | G4 ^F4 G8 | B12 B4 | B4 B8 A4 | %23
w: * le ca- ptus|est, qui ca\-|* pti- vum|te- ne- bat|pri- mum ho\-|* mi- nem:|ho- di-|e por- tas|
 G8 ^F4 F4 | G6 G2 G4 G4 | ^F8 z4 G4 | F4 D4 F8 | E4 D4 E8 | D8 z4 F4 | F4 F4 (G4 F2 E2) | %30
w: mor- tis et|se- ras pa- ri-|ter Sal-|va- tor no-|ster dis- ru-|pit, Sal-|va- tor no\- * *|
 D4 (B,2 C2 D2 E2 F2 G2 | A4) (G8 ^F4) | G16 || D8 G4 A4 | (B6 A2 G8) | F4 D4 D4 E4 | %36
w: ster dis\- * * * * *|* ru\- *|pit.|De- stru- xit|qui\- * *|dem clau- stra in-|
 (F6 E2 F4 G4) | (A6 GF E2 F2 G4- | G4 ^F4) G4 B4- | B4 A4 G8 | F8 z4 B4 | G4 (B8 A4) | %42
w: fer\- * * *||* * ni, et|* sub- ver-|tit, et|sub- ver\- *|
 B4 G4 B6 B2 | B4 A4 G4 ^F4 | G4 C4 (G4 ^F4) | G16 | z4 F4 G6 G2 | G4 F4 (G2 A2 B4- | %48
w: tit po- ten- ti-|as di- a- bo-|li sub- ver\- *|tit,|po- ten- ti-|as di- a\- * *|
 B2 A2 G8) ^F4 | G16 |] %50
w: * * * bo-|li.|
V:3
 d16 | g8 e8 | f8 d4 (g4- | g4 ^f4) g8 | z8 z4 d4 | B4 c4 d8 | G4 d4 f4 f4 | %7
w: Re-|ces- sit|pa- stor no\-|* * ster,|fons|a- quae vi-|vae, ad cu- ius|
[M:4/2][K:treble-8] g6 g2 g8 | z16 | z8 z4 g4- | g4 e4 ^f4 (g4- | g2 f2 _e2 d2 c8- | c4 B4 A4) A4 | %13
w: tran- si- tum||sol|* ob- scu- ra\-||* * * tus|
 G16 || G8 G4 c4- | c4 =B4 c4 d4 | G8 B8 | c8 d8 | e4 e4 f8 | d4 _e8 d4 | _e4 c4 d8 | g12 g4 | %22
w: est:|Nam et il\-|* le ca- ptus|est, qui|ca- pti-|vum te- ne-|bat pri- mum|ho- mi- nem:|ho- di-|
 g4 f8 f4 | d8 d4 d4 | d6 d2 d4 _e4 | d8 z8 | z16 | z16 | z8 z4 d4 | c4 A4 c8 | B4 G4 (A6 B2 | %31
w: e por- tas|mor- tis et|se- ras pa- ri-|ter|||Sal-|va- tor no-|ster dis ru\- *|
 c6 B2 A8) | G16 || z16 | z16 | z16 | z16 | z4 A4 A4 B4 | (c4 d4) G4 g4- | g4 f4 _e8 | d8 _e8- | %41
w: |pit.|||||clau- stra in-|fer- * ni, et|* sub- ver-|tit, et|
 e4 d4 c8 | G16 | z8 z4 d4 | _e6 e2 e4 d4 | c4 =B4 c8 | z4 d4 _e6 e2 | _e4 d4 (c4 B2 A2 | %48
w: * sub- ver-|tit|po-|ten- ti- as di-|a- bo- li,|po- ten- ti-|as di- a\- * *|
 G2 A2 B2 c2 d4) d4 | G16 |] %50
w: * * * * * bo-|li.|
V:4
 z8 G,8- | G,8 C8 | A,4 B,8 G,4 | A,8 G,8- | G,8 z8 | z16 | z4 G,4 F,4 D,4 |[M:4/2] C,6 G,2 G,8 | %8
w: Re-|* ces-|sit pa- stor|no- ster,|||ad cu- ius|tran- si- tum|
 C8 A,4 =B,4 | (C6 B,2 A,4) G,4 | C8 z4 G,4 | C,8 C,8 | D,12 D,4 | G,16 || z16 | z16 | z8 G,8 | %17
w: sol ob- scu-|ra\- * * tus|est, sol|ob- scu-|ra- tus|est:|||Qui|
 A,8 B,8 | C4 C4 D8 | B,4 C8 =B,4 | C4 A,4 G,8 | z4 G,8 G,4 | G,4 B,8 F,4 | G,8 D,4 D,4 | %24
w: ca- pti-|vum te- ne-|bat pri- mum|ho- mi- nem:|ho- di-|e por- tas|mor- tis et|
 G,6 G,2 G,4 C,4 | D,4 D4 B,4 G,4 | B,8 A,4 B,4 | (C2 A,2 D8 ^C4) | D4 G,4 F,4 D,4 | F,8 E,4 F,4 | %30
w: se- ras pa- ri-|ter Sal- va- tor|no- ster dis-|ru\- * * *|pit, Sal- va- tor|no- ster dis-|
 (G,6 F,E, D,8 | C,8 D,8) | G,16 || x16 | x16 | x16 | x16 |[M:4/2] z16 | z16 | z16 | z16 | z16 | %42
w: ru\- * * *||pit.||||||||||
 z16 | z16 |[M:4/2] z16 | z16 | z16 | z16 | z16 | z16 |] %50
w: ||||||||

